icon/lg/micron.svg

<?xml version="1.0" encoding="UTF-8"?>
<svg viewBox="0 0 512 146" version="1.1" xmlns="http://www.w3.org/2000/svg" preserveAspectRatio="xMidYMid" height="1em" width="1em">
  <g>
    <path d="M252.215891,115.181485 C228.14983,115.181485 206.559106,101.514439 206.559106,82.4022967 C206.559106,63.2820488 228.14983,49.6020343 252.387722,49.6020343 C262.926148,49.6020343 272.765903,52.2605511 283.466433,58.2292457 L275.925323,67.923106 C269.066674,64.6048231 260.988997,62.6174196 252.387722,62.6174196 C242.201064,62.6174196 230.437127,68.3218836 230.437127,82.4022967 C230.437127,96.4762256 242.025991,102.179069 252.387722,102.179069 C260.988997,102.179069 269.240126,100.452654 276.265743,97.3937382 L283.821442,107.617681 C275.427965,112.105448 265.329065,114.826527 254.410311,115.149131 L252.215891,115.181485 Z M389.682287,114.938328 C413.912075,114.938328 435.514145,101.263177 435.514145,82.1591397 C435.514145,63.0388918 413.912075,49.3540141 389.682287,49.3540141 C365.446015,49.3540141 343.845566,63.0388918 343.845566,82.1591397 C343.845566,100.881096 364.590638,114.389151 388.231426,114.921984 L389.682287,114.938328 Z M411.634504,82.1591397 C411.634504,96.2330686 399.872188,101.931048 389.682287,101.931048 C379.492387,101.931048 367.734934,96.2330686 367.734934,82.1591397 C367.734934,68.0754844 379.492387,62.3710205 389.682287,62.3710205 C399.872188,62.3710205 411.634504,68.0754844 411.634504,82.1591397 Z M445.271227,113.354566 L467.905904,113.354566 L467.905904,74.3165149 C467.905904,69.0481126 472.002289,62.8459872 479.3278,62.8005979 C484.443824,62.8459872 489.350733,66.3442064 489.350733,70.7858748 L489.310207,113.354566 L512,113.354566 L512,69.5798159 C512,58.0509306 499.64276,48.4300174 484.894475,48.4300174 L484.466519,48.452712 L484.466519,48.452712 L484.036941,48.4300174 L484.036941,48.4300174 C477.943426,48.4300174 472.164394,50.2066848 467.440664,53.1861689 L467.404508,53.0878552 C467.107891,52.4274708 464.603041,48.832037 445.271227,48.832037 L445.271227,113.354566 Z M173.504339,50.9572295 L195.67864,50.9572295 L195.67864,113.354566 L173.504339,113.354566 L173.504339,50.9572295 Z M294.395531,113.354566 L316.573073,113.354566 L316.573073,75.5160896 C316.573073,69.5376687 323.593827,64.7539594 331.149527,64.7539594 C334.37926,64.7539594 337.445166,65.3186663 340.113761,66.3275368 L341.237301,66.7867522 L341.237301,50.3736526 C338.622553,49.9781172 335.795447,49.7625179 333.299035,49.7625179 C327.357898,49.7625179 321.394067,51.4889328 316.513095,54.3792594 L316.428372,54.2324538 C315.797562,53.2682569 312.373931,50.1580534 294.395531,50.1580534 L294.395531,113.354566 Z" fill="#0090DA"/>
    <path d="M98.8372995,25.4662674 C100.672325,24.6962701 100.858745,25.9477183 99.8358643,26.7290629 C98.7902891,27.5298601 97.5501883,28.4522357 96.0361305,29.3697483 C89.3833541,33.4029129 82.6300728,38.3292743 75.683887,43.8489389 C78.7516281,45.7538491 81.3160042,48.3965158 83.1185728,51.5241889 L83.7583215,52.7193074 L93.2592772,72.8754042 C94.2416316,74.8417341 96.0620672,75.9310776 98.1742913,75.9310776 C100.054706,75.9310776 101.694325,75.0703617 102.725408,73.4980752 L103.082821,72.8754042 L112.582156,52.7193074 C116.146838,45.5364487 123.587443,40.564698 132.148192,40.564698 C140.807824,40.564698 148.261398,45.6029116 151.766101,52.9073489 C152.124352,53.7746089 152.181089,54.5689219 151.526186,55.5091291 C146.787542,62.3588626 140.696458,69.4199969 133.602731,76.5058165 L131.2015,78.8684145 L131.204742,66.50469 L126.210297,77.1306523 C120.734401,88.8718948 110.802246,95.8877856 98.1710492,95.8877856 C85.9909662,95.8877856 76.3190727,89.364081 70.7353151,78.3704565 L70.1318015,77.1306523 L65.137356,66.50469 L65.1422192,114.965886 C57.1165512,119.426737 50.097497,122.709346 44.0600843,124.898618 L42.4378367,125.468649 L42.4378367,73.2336556 C19.9069062,95.7354072 7.45402414,115.662936 15.0502498,125.967931 C23.6412193,137.630061 46.6367099,131.231811 80.69033,109.747922 L82.5587468,108.56113 C84.0484889,107.607955 85.4296208,106.776357 86.5951535,106.165223 C87.7331284,105.567056 88.791672,106.256001 87.3230035,107.598228 C86.4330488,108.415236 85.2042953,109.365169 83.811816,110.318345 C78.8708651,113.690122 73.8614413,116.937403 68.8765017,119.978851 L65.1438402,122.220071 L65.1454613,145.756051 L42.4378367,145.756051 L42.4378367,134.00184 C24.0973124,141.967664 8.78166153,144.104204 2.32178974,134.856131 C-6.33130351,122.459739 9.79547802,94.8770957 40.8198907,66.775257 L42.4378367,65.3213258 L42.4378367,62.3223891 C42.4378367,50.2877371 52.1560127,40.564698 64.1906647,40.564698 C66.9626548,40.564698 69.6146875,41.0915382 72.0592262,42.0382296 L74.4551335,40.3847618 L74.4551335,40.3847618 C81.0981835,35.8506937 88.0443694,31.6343507 94.8365558,27.5185127 C96.2825296,26.6431474 97.7252613,25.9315078 98.8372995,25.4662674 Z M111.864032,17.8092071 L112.750745,17.3577909 C146.641972,-0.546671763 172.789458,-5.43250704 181.205933,6.62159751 C189.110781,17.9430824 179.301999,41.2275047 155.330649,66.4532835 L153.904262,67.9393165 L153.904262,113.354566 L131.196637,113.354566 L131.199879,88.4812225 C126.304318,92.4041559 121.102378,96.3060157 115.595682,100.15276 L111.446632,103.036602 C106.302843,106.594897 100.294682,110.679822 95.4899852,113.698382 L93.0144991,115.222822 L93.0144991,115.222822 L92.528185,115.5138 C91.0870744,116.390786 89.7318792,117.113773 88.6247042,117.58874 C86.7945423,118.373327 86.6016377,117.121879 87.6115499,116.330808 C88.652262,115.520284 89.9766573,114.617361 91.4582941,113.646354 L92.5784375,112.94282 L92.5784375,112.94282 C98.1953649,109.571042 106.819334,103.505085 112.408704,99.360068 C154.267376,68.3072941 178.440427,26.3302854 166.637585,13.520773 C159.069181,5.30636301 139.99153,7.18148904 115.431768,18.4996312 L113.668257,19.3241208 C112.076389,20.1022233 110.662836,20.646895 109.425978,21.0975461 C108.219919,21.5368498 107.260259,20.7036317 108.900758,19.5705199 C109.693126,19.0232545 110.7127,18.4137409 111.864032,17.8092071 Z" fill="#0090DA"/>
  </g>
</svg>

<svg width="512" height="146" xmlns="http://www.w3.org/2000/svg" preserveAspectRatio="xMidYMid"><g fill="#0090DA"><path d="M252.216 115.181c-24.066 0-45.657-13.667-45.657-32.779 0-19.12 21.59-32.8 45.829-32.8 10.538 0 20.378 2.659 31.078 8.627l-7.54 9.694c-6.86-3.318-14.937-5.306-23.538-5.306-10.187 0-21.95 5.705-21.95 19.785 0 14.074 11.588 19.777 21.95 19.777 8.601 0 16.852-1.726 23.878-4.785l7.555 10.224c-8.393 4.487-18.492 7.209-29.41 7.531l-2.195.032Zm137.466-.243c24.23 0 45.832-13.675 45.832-32.779 0-19.12-21.602-32.805-45.832-32.805-24.236 0-45.836 13.685-45.836 32.805 0 18.722 20.745 32.23 44.385 32.763l1.451.016Zm21.953-32.779c0 14.074-11.763 19.772-21.953 19.772s-21.947-5.698-21.947-19.772c0-14.084 11.757-19.788 21.947-19.788s21.953 5.704 21.953 19.788Zm33.636 31.196h22.635V74.317c0-5.269 4.096-11.471 11.422-11.516 5.116.045 10.023 3.543 10.023 7.985l-.04 42.569H512V69.58c0-11.53-12.357-21.15-27.106-21.15l-.427.023-.43-.023c-6.094 0-11.873 1.777-16.596 4.756l-.036-.098c-.297-.66-2.802-4.256-22.134-4.256v64.523ZM173.504 50.957h22.175v62.398h-22.175V50.957Zm120.892 62.398h22.177V75.516c0-5.978 7.02-10.762 14.577-10.762 3.23 0 6.295.565 8.964 1.574l1.123.459V50.374a54.904 54.904 0 0 0-7.938-.611c-5.941 0-11.905 1.726-16.786 4.616l-.085-.147c-.63-.964-4.054-4.074-22.032-4.074v63.197Z"/><path d="M98.837 25.466c1.835-.77 2.022.482.999 1.263-1.046.8-2.286 1.723-3.8 2.64-6.653 4.034-13.406 8.96-20.352 14.48a21.962 21.962 0 0 1 7.435 7.675l.64 1.195 9.5 20.156c.983 1.967 2.803 3.056 4.915 3.056 1.88 0 3.52-.86 4.551-2.433l.358-.623 9.5-20.156c3.564-7.183 11.004-12.154 19.565-12.154 8.66 0 16.113 5.038 19.618 12.342.358.868.415 1.662-.24 2.602-4.738 6.85-10.83 13.911-17.923 20.997l-2.401 2.362.003-12.363-4.995 10.626c-5.476 11.74-15.408 18.757-28.039 18.757-12.18 0-21.852-6.524-27.436-17.518l-.603-1.24-4.995-10.625.005 48.46c-8.025 4.462-15.045 7.744-21.082 9.934l-1.622.57V73.234C19.907 95.735 7.454 115.663 15.05 125.968c8.591 11.662 31.587 5.264 65.64-16.22l1.869-1.187c1.49-.953 2.87-1.785 4.036-2.396 1.138-.598 2.197.091.728 1.433-.89.817-2.119 1.767-3.511 2.72a350.123 350.123 0 0 1-14.935 9.66l-3.733 2.242.001 23.536H42.438v-11.754c-18.34 7.966-33.656 10.102-40.116.854-8.653-12.396 7.473-39.979 38.498-68.08l1.618-1.455v-2.999c0-12.034 9.718-21.757 21.753-21.757 2.772 0 5.424.527 7.868 1.473l2.396-1.653c6.643-4.534 13.59-8.75 20.382-12.866a31.547 31.547 0 0 1 4-2.053Zm13.027-7.657.887-.451c33.891-17.905 60.038-22.79 68.455-10.736 7.905 11.321-1.904 34.606-25.875 59.831l-1.427 1.486v45.416h-22.707l.003-24.874a296.376 296.376 0 0 1-15.604 11.672l-4.15 2.884c-5.143 3.558-11.151 7.643-15.956 10.661l-2.476 1.525-.486.29c-1.44.878-2.796 1.6-3.903 2.076-1.83.784-2.023-.467-1.013-1.258 1.04-.81 2.365-1.714 3.846-2.685l1.12-.703c5.617-3.372 14.241-9.438 19.83-13.583 41.86-31.053 66.032-73.03 54.23-85.84-7.569-8.214-26.646-6.339-51.206 4.98l-1.764.824c-1.592.778-3.005 1.323-4.242 1.774-1.206.439-2.166-.394-.525-1.527a29.387 29.387 0 0 1 2.963-1.762Z"/></g></svg>
